X:1
T: Knockie Branar
C:C Sherrit
R:Reel
Q: 232
K:Bm
M:4/4
L:1/8
fe|:dB ((3B^AB) FB Bc|dc Bc df ed|((3cde) Ac ea ^ga|ec Ac ec fe|
dB ((3B^AB) FB Bc|dc Bc df ed|((3cde) Ac ec fe|1c2 B2 B2 fe:|2c2 B2 B2 dc|
|:Bb ((3b^ab) fg fe|de fd Ad cB|Aa ((3a^ga) ef ed|cd ec AB cA|
Bb ((3b^ab) fg fe|de fd Ad cB|((3cde) Ac ec fe|1c2 B2 B2 dc:|2c2 B2 B2z||
